X:92
T:La Gitane
C:Django Reinhardt
N:Arranged for Mandolin by Mike Stangeland
L:1/8
Q:1/4=180
M:3/4
K:F
 z/f/g/f/ ed (3c=B_B | A3F G_A | 
A/f/g/f/ ed cB | A3F G_A | A/f/g/f/ ed cB | A/f/g/f/ ed cB | A/f/g/f/ ed cB | 
(3ABA G4 | z2 (3BAG (3FED | _D2 EG =B2 | z2 (3BAG (3FED | _D2 EG =B2 | zA, _DE GB | 
_de gf e=d | _dB AG FE | (3EFE DE FG | A2 (3fed (3c=B_B | A3F G_A | A/f/g/f/ ed cB | 
A3[fAD] [f2A2D2] | zd cd cd | _ed cB AG | _GA c_e _ga | (3gag _g=g dB | GB dg _a=a | 
bg _eB G_G | GB _eg ag | (3gag fd A2 | (3fgf ed (3cBA | [d2E2=B,2] f2 e2 | [_d2G2_D2] =B,2 D2 | 
DD FF AA | d/f/g/f/ ed (3c=B_B | A3F G_A | A/f/g/f/ ed cB | A3F G_A | A2 (3fgf (3dcB | 
A2 (3fgf (3dcB | (3ABA G4 | z2 (3BAG (3FED | _D2 EG =B2 | z2 (3BAG (3FED | _D2 EG =B2 | 
zA, _DE GB | _d/B/d/e/ g/B/d/g/ b/d/e/b/ | _d'/e/_g/d'/ b/_d/e/b/ d'/e/g/d'/ | 
e'3d' d'2 | f/g/f ed (3c=B_B | A3F G_A | A/f/g/f/ ed cB | A3[fAD] [f2A2D2] | zd cd cd | 
_ed cB AG | _GA c_e _ga | (3gag _g=g dB | GB dg _a=a | bg _eB G_G | GB _eg ag | 
(3gag fd A2 | (3fgf ed (3cBA | [d2E2=B,2] eg fe | [_d2G2_D2] =B,2 D2 | DD FF AA | 
d2 (3aba ga | ba gf ed | _de gb ad | (3efe (3d_d=d (3efg | a2 (3aba _a=a | be fg _d=d | 
_ef ga bc' | (3bc'b a_a =a2 | za (3aba gf | _ef ga bc' | (3bc'b gf eb | (3aba fd A2 | 
zf ff ff | (3efe (3ded (3cdc | =B3f ff | f3[ec_G] [e2_d2=G2] | [e2_d2G2] ab ab | 
a2 (3gfe g/f/e/d/ | (3_d=de (3fg_a (3=abc' | (3bc'b_a =a2 | za _a=a c'=b | ba gf ed | 
_de gb ad | (3efe (3d_d=d (3efg | a2 (3aba gf | ef ga bc' | (3bc'b gf eb | (3aba fd A2 | 
za _a=a c'=b | ba gf ed | _de gb af | d2 A2 F2 | A/f/g/f/ ed (3c=B_B | A3F G_A | 
A/f/g/f/ ed cB | A3[fAD] [f2A2D2] | z2 (3aba _a=a | d'_d' zc' =b2 | ba zg f2 | 
(3fgf ee f_g | g4 g2 | G/_d/e/(3g (3b=bc' (3_d'=d'_e' | e'2 (3_d'd'd' e'd' | b_d' bg bg | 
eg e_d ed | A_A =A_d eg | ab ag fe | g_g fe (3d_dc | =B3B B2 | [_a6f6D6] | [_a4f4D4] [=a2f2D2] | 
[=b2f2D2] [be][be] z[bd] | [=b3d3]d' _d'=d' | _e'd' c'b ag | _ga c'_e' d'g | (3aba (3g_g=g (3abc' | 
(3d'e'd'd' e'f' | e'd' _d'=d' bg | eg b_d' e'_e' | (3d'e'd' _d'=d' af | df ab c'b | 
(3aba gf ed | _d=B AG FE | (3DED _D=D FA | d2 a=b _d'=d' | (3_d'=d'_d' =ba _gd | 
(3_d=d_d =d_g ab | =b4 b2 | z2 a=b _d'=d' | _d'2 d'2 =d'_d' | c'2 c'2 _d'c' | 
[=b3e3G3][beG] [beG][beG] | [=b4e4G4] (3_d'=d'_e' | e'_e' d'_d' ba | g_g ed B_A | 
A3[eeG_D] [e2e2G2D2] | ze g=b e'_g' | (3g'_e'_g' (3=e'd'=b (3ged | (3_deg (3=b_d'=d' (3e'_g'=g' | 
_a'/a'/a'/a'/ a'2 =a'2 | za =b_d' =d'2 | (3_d'=d'_d' =ba _gd | (3_d=d_d =d_g ab | 
=ba _gd =B_A | A4 (3_e'=e'f' | (3_g'f'e' (3_e'=e'f' (3g'f'e' | (3_e'_d'=b (3ag_g (3be'_g' | 
(3e'_g'e' (3_e'=e'b (3=b_g=g | e6 | [=b2d2_G2D2] [bdGD][bdGD] [b2d2G2D2] | [bg][_g'b] [g'b][e'b] [e'2b2] | 
[e'2a2] [e'a][d'a] [d'2a2] | z2 _d'=d' e'd' | (3_d'=d'_d' =bb _gg | (3a=ba (3gag (3e_ge | 
dd _d=d _ga | d'2 _a2 =a2 | f'e' e'_e' e'd' | d'_d' d'c' c'=b | =b_b ba a_a | 
_ag g_g gf | fe e_e ed | d_d dc c=B | =B_B BA A_A | G4 GG | (3G_de(3g (3b=bc' (3_d'=d'_e' | 
e'2 (3_d'd'd' e'd' | b_d' bg bg | eg e_d ed | A_A =A_d eg | ab ag fe | g_g fe (3d_dc | 
=B3B B2 | [_a6f6] | [_a4f4] [=a2f2] | [=b3f3][be] [be][bf] | [=b3d3]d' _d'=d' | 
_e'd' c'b ag | _ga c'_e' d'g | (3aba (3g_g=g (3abc' | (3d'e'd'd' e'f' | e'd' _d'=d' bg | 
eg b_d' e'_e' | (3d'e'd' _d'=d' af | df ab c'b | (3aba gf ed | _d=B AG FE | (3DED _D=D FA | 
d3/2f/ ed (3c=B_B | A3F G_A | A/f/g/f/ ed cB | A3F G_A | A/f/g/f/ ed cB | A/f/g/f/ ed cB | 
A/f/g/f/ ed cB | (3ABA G4 | z2 (3BAG (3FED | _D2 EG =B2 | z2 (3BAG (3FED | _D2 EG =B2 | 
zA, _DE GB | _de gf e=d | _dB AG FE | (3EFE DE FG | A2 (3fed (3c=B_B | A3F G_A | 
A/f/g/f/ ed cB | A3[fAD] [f2A2D2] | zd cd cd | _ed cB AG | _GA c_e _ga | (3gag _g=g dB | 
GB dg _a=a | bg _eB G_G | GB _eg ag | (3gag fd A2 | (3fgf ed (3cBA | [=B2_A2D2] f2 e2 | 
[_d2G2E2] =B,2 _D2 | (3[dD]dd (3fff (3aaa | d'6 | 


